Resources/Public/Icons/Extension.svg

<?xml version="1.0" encoding="iso-8859-1"?>
<svg version="1.1" xmlns="http://www.w3.org/2000/svg" xmlns:xlink="http://www.w3.org/1999/xlink" x="0px" y="0px" viewBox="0 0 300 300" style="enable-background:new 0 0 300 300;" xml:space="preserve">
    <path d="M45.432,35.049c-0.008,0-0.017,0-0.025,0c-2.809,0-5.451,1.095-7.446,3.085c-2.017,2.012-3.128,4.691-3.128,7.543 v159.365c0,5.844,4.773,10.61,10.641,10.625c24.738,0.059,66.184,5.215,94.776,35.136V84.023c0-1.981-0.506-3.842-1.461-5.382 C115.322,40.849,70.226,35.107,45.432,35.049z" fill="#7a99ac"/>
    <path d="M262.167,205.042V45.676c0-2.852-1.111-5.531-3.128-7.543c-1.995-1.99-4.639-3.085-7.445-3.085c-0.009,0-0.018,0-0.026,0 c-24.793,0.059-69.889,5.801-93.357,43.593c-0.955,1.54-1.46,3.401-1.46,5.382v166.779 c28.592-29.921,70.038-35.077,94.776-35.136C257.394,215.651,262.167,210.885,262.167,205.042z" fill="#7a99ac"/>
    <path d="M286.373,71.801h-7.706v133.241c0,14.921-12.157,27.088-27.101,27.125c-20.983,0.05-55.581,4.153-80.084,27.344 c42.378-10.376,87.052-3.631,112.512,2.171c3.179,0.724,6.464-0.024,9.011-2.054c2.538-2.025,3.994-5.052,3.994-8.301V82.427 C297,76.568,292.232,71.801,286.373,71.801z" fill="#7a99ac"/>
    <path d="M18.332,205.042V71.801h-7.706C4.768,71.801,0,76.568,0,82.427v168.897c0,3.25,1.456,6.276,3.994,8.301 c2.545,2.029,5.827,2.78,9.011,2.054c25.46-5.803,70.135-12.547,112.511-2.171c-24.502-23.19-59.1-27.292-80.083-27.342 C30.49,232.13,18.332,219.963,18.332,205.042z" fill="#7a99ac"/>
</svg>

<?xml version="1.0" encoding="UTF-8" standalone="no"?><!DOCTYPE svg PUBLIC "-//W3C//DTD SVG 1.1//EN" "http://www.w3.org/Graphics/SVG/1.1/DTD/svg11.dtd"><svg width="16px" height="16px" version="1.1" xmlns="http://www.w3.org/2000/svg" xmlns:xlink="http://www.w3.org/1999/xlink" xml:space="preserve" xmlns:serif="http://www.serif.com/" style="fill-rule:evenodd;clip-rule:evenodd;stroke-linejoin:round;stroke-miterlimit:2;"><g transform="matrix(0.0533333,0,0,0.0533333,0,0)"><path d="M45.432,35.049L45.407,35.049C42.598,35.049 39.956,36.144 37.961,38.134C35.944,40.146 34.833,42.825 34.833,45.677L34.833,205.042C34.833,210.886 39.606,215.652 45.474,215.667C70.212,215.726 111.658,220.882 140.25,250.803L140.25,84.023C140.25,82.042 139.744,80.181 138.789,78.641C115.322,40.849 70.226,35.107 45.432,35.049Z" style="fill:rgb(122,153,172);fill-rule:nonzero;"/></g><g transform="matrix(0.0533333,0,0,0.0533333,0,0)"><path d="M262.167,205.042L262.167,45.676C262.167,42.824 261.056,40.145 259.039,38.133C257.044,36.143 254.4,35.048 251.594,35.048L251.568,35.048C226.775,35.107 181.679,40.849 158.211,78.641C157.256,80.181 156.751,82.042 156.751,84.023L156.751,250.802C185.343,220.881 226.789,215.725 251.527,215.666C257.394,215.651 262.167,210.885 262.167,205.042Z" style="fill:rgb(122,153,172);fill-rule:nonzero;"/></g><g transform="matrix(0.0533333,0,0,0.0533333,0,0)"><path d="M286.373,71.801L278.667,71.801L278.667,205.042C278.667,219.963 266.51,232.13 251.566,232.167C230.583,232.217 195.985,236.32 171.482,259.511C213.86,249.135 258.534,255.88 283.994,261.682C287.173,262.406 290.458,261.658 293.005,259.628C295.543,257.603 296.999,254.576 296.999,251.327L296.999,82.427C297,76.568 292.232,71.801 286.373,71.801Z" style="fill:rgb(122,153,172);fill-rule:nonzero;"/></g><g transform="matrix(0.0533333,0,0,0.0533333,0,0)"><path d="M18.332,205.042L18.332,71.801L10.626,71.801C4.768,71.801 0,76.568 0,82.427L0,251.324C0,254.574 1.456,257.6 3.994,259.625C6.539,261.654 9.821,262.405 13.005,261.679C38.465,255.876 83.14,249.132 125.516,259.508C101.014,236.318 66.416,232.216 45.433,232.166C30.49,232.13 18.332,219.963 18.332,205.042Z" style="fill:rgb(122,153,172);fill-rule:nonzero;"/></g></svg>
